X: 2112
T: Atholl Lowlanders, The
R: jig
M: 6/8
K: Adorian
|:~e3 ecA|ecA Bcd|~e3 ecA|Bcd cBA|
ecA EAc|ecA Bcd|eae ged|cAG ~A3:|
|:Ace Ace|EGB EGB|Ace Ace|aAg edc|
Ace Ace|EGB EGB|eae ged|1 cAG ~A3:|2 cAG Ace||
|:aAe edc|~A3 Ace|aAe edc|Bcd gfg|
aAe edc|DEF GAB|eae ged|cAG ~A3:|
|:cAB cBA|dBc ded|cAB cBA|^GAB ~e3|
cAB cBA|~d3 dcd|eae ged|cAG ~A3:|

